public/performance-optimization.svg

<svg width="93" height="125" viewBox="0 0 93 125" fill="none" xmlns="http://www.w3.org/2000/svg">
<g clip-path="url(#clip0_9_86845)">
<path fill-rule="evenodd" clip-rule="evenodd" d="M42.12 26.2923C22.859 37.6843 7.46992 62.5733 5.56192 85.4723C5.28492 88.7353 4.71593 95.5253 7.39193 98.1133C9.4159 99.5045 11.5169 100.78 13.685 101.934C13.1952 100.816 12.9087 99.6198 12.839 98.4012C11.279 79.4672 21.886 57.7963 33.078 44.7123C42.545 33.6413 57.178 23.0742 70.393 25.2862L67.656 23.7103C60.722 19.7943 52.1179 20.6633 42.1189 26.2923H42.12ZM16.563 104.96C16.4473 104.96 16.3334 104.931 16.2309 104.877C15.9039 104.684 15.3679 104.377 14.7099 104.009C11.8723 102.527 9.12815 100.872 6.49295 99.0543C3.35195 96.0293 3.94296 89.0953 4.25296 85.3623C6.21596 62.0703 21.843 36.7543 41.453 25.1693V25.1593C51.888 19.2923 60.935 18.4233 68.289 22.5823L76.949 27.5823C77.0241 27.6232 77.09 27.6791 77.143 27.7463C77.1959 27.8135 77.2347 27.8907 77.257 27.9734C77.2792 28.056 77.2845 28.1423 77.2725 28.227C77.2605 28.3118 77.2313 28.3931 77.1869 28.4663C77.1024 28.6152 76.9627 28.7247 76.798 28.7713C76.6333 28.8179 76.4569 28.7978 76.3069 28.7153C62.3449 21.0153 44.8259 32.9783 34.0589 45.5583C23.0319 58.4323 12.5969 79.7323 14.1349 98.2962C14.3569 100.983 15.2029 102.67 16.9049 103.759C17.0236 103.835 17.1146 103.947 17.1642 104.079C17.2139 104.21 17.2195 104.354 17.1803 104.49C17.1411 104.625 17.0592 104.744 16.9468 104.828C16.8344 104.913 16.6976 104.959 16.5569 104.959L16.563 104.96Z" fill="#1B69FF"/>
<path fill-rule="evenodd" clip-rule="evenodd" d="M50.4306 30.7208C60.6666 24.8208 69.9306 24.2678 76.6306 28.1438C83.3436 32.0198 87.4906 40.3258 87.4906 52.1438C87.4906 53.2998 87.4355 54.5438 87.3575 55.7378C87.0131 59.3309 85.8313 62.7932 83.9066 65.8468C82.1391 68.9002 79.6454 71.4701 76.6466 73.3287L65.0336 80.0288C63.4754 83.1675 61.5605 86.116 59.3266 88.8158C56.8353 91.9116 53.8173 94.5436 50.4116 96.5908C47.7435 98.2672 44.6494 99.1406 41.4986 99.1068C39.4044 99.0371 37.3966 98.2546 35.8076 96.8888L24.1956 103.589C21.3956 105.198 18.8376 105.441 16.9126 104.507C14.9876 103.573 13.7216 101.449 13.4846 98.3568C13.4126 97.2518 13.3516 96.0617 13.3516 94.9067C13.3736 83.0897 17.5206 69.9948 24.2336 58.3818C30.9326 46.7528 40.2116 36.6218 50.4306 30.7208Z" fill="#F1F4FB"/>
<path fill-rule="evenodd" clip-rule="evenodd" d="M66.9598 26.3054C62.0108 26.3054 56.5029 27.9804 50.7599 31.2874C40.9599 36.9394 31.7369 46.6774 24.7809 58.7044C17.8469 70.7264 14.0149 83.5834 14.0149 94.9044C14.0149 95.9824 14.0538 97.1554 14.1418 98.3044C14.3468 101.057 15.4248 103.054 17.1888 103.917C18.9888 104.785 21.3529 104.47 23.8639 103.017L35.4769 96.3175C35.5951 96.2494 35.7315 96.2197 35.8673 96.2326C36.0031 96.2455 36.1316 96.3004 36.2349 96.3895C37.7146 97.6612 39.5847 98.3887 41.5349 98.4514C44.5575 98.4671 47.5224 97.6234 50.0839 96.0184C53.4273 94.0105 56.3907 91.4291 58.8379 88.3924C61.0323 85.7292 62.9151 82.8241 64.4498 79.7335C64.5057 79.618 64.5944 79.5216 64.7048 79.4564L76.3169 72.7564C79.2225 70.9497 81.6412 68.4588 83.3618 65.5014C85.2364 62.5421 86.3812 59.1798 86.7019 55.6915C86.7959 54.4745 86.8289 53.2474 86.8289 52.1354C86.8289 40.9484 83.1079 32.6264 76.3169 28.6944C73.466 27.0787 70.2365 26.2503 66.9598 26.2944V26.3054ZM19.3929 105.697C18.4346 105.709 17.4866 105.499 16.6229 105.083C14.4229 104.01 13.0839 101.632 12.8409 98.3974C12.7519 97.2144 12.7129 96.0084 12.7129 94.9024C12.7129 83.3614 16.6058 70.2725 23.6678 58.0515C30.7298 45.8305 40.1249 35.9264 50.1229 30.1594C60.2149 24.3314 69.7539 23.4134 76.9589 27.5834C84.1639 31.7534 88.1349 40.4834 88.1349 52.1464C88.1349 53.2914 88.0958 54.5465 88.0018 55.7855C87.6536 59.4783 86.4494 63.0391 84.4849 66.1854C82.6434 69.3311 80.0594 71.978 76.9589 73.8945L65.5338 80.4945C63.9713 83.6167 62.0565 86.5497 59.8268 89.2364C57.2841 92.3866 54.2089 95.0669 50.7408 97.1555C47.9546 98.8791 44.738 99.7804 41.4619 99.7554C39.3839 99.6719 37.3836 98.9432 35.7389 97.6705L24.5129 104.146C22.9709 105.102 21.2051 105.637 19.3918 105.697H19.3929Z" fill="#1B69FF"/>
<path fill-rule="evenodd" clip-rule="evenodd" d="M72.0089 36.1642C66.4848 32.9732 58.8538 33.4272 50.4308 38.2882C42.0078 43.1492 34.3789 51.4882 28.8599 61.0542C23.3409 70.6202 19.9238 81.3932 19.9238 91.1262C19.9238 92.1322 19.9398 93.0342 20.0178 93.9962C20.0069 94.4758 20.1228 94.9498 20.3539 95.3702C20.585 95.7906 20.9231 96.1425 21.3339 96.3902C21.8056 96.5673 22.3137 96.6255 22.8133 96.5599C23.3129 96.4944 23.7887 96.3069 24.1989 96.0141L37.4648 88.3612V88.3782C38.5268 87.7652 39.5718 87.7652 40.1968 88.5112C40.7386 89.1655 41.4129 89.6974 42.1753 90.072C42.9377 90.4466 43.7709 90.6553 44.6199 90.6842C46.6729 90.6971 48.6863 90.1191 50.4199 89.0192C52.6337 87.6999 54.5971 86.0002 56.2198 83.9982C57.9658 81.8836 59.4127 79.539 60.5198 77.0301C61.0477 75.5436 62.053 74.2739 63.3788 73.4192L76.6618 65.7662C77.834 65.0403 78.81 64.0376 79.5038 62.8462C80.2537 61.6594 80.7122 60.312 80.8419 58.9142C80.9189 57.8692 80.9359 56.9342 80.9359 55.9282C80.9399 46.1952 77.5279 39.3542 72.0089 36.1642Z" fill="white"/>
<path fill-rule="evenodd" clip-rule="evenodd" d="M64.0466 34.7697C59.9926 34.7697 55.4586 36.1407 50.7636 38.8507C42.7126 43.4957 35.1306 51.4976 29.4296 61.3796C23.7286 71.2616 20.5646 81.8226 20.5646 91.1246C20.5646 92.1146 20.6036 92.9997 20.6586 93.9447C20.6443 94.3124 20.7267 94.6774 20.8974 95.0034C21.0681 95.3294 21.3213 95.6049 21.6317 95.8026C22.0049 95.9286 22.4031 95.9622 22.7922 95.9005C23.1813 95.8389 23.5496 95.6838 23.8657 95.4486L37.1317 87.7957C37.1735 87.7769 37.2162 87.7601 37.2596 87.7456C37.7805 87.3792 38.416 87.2128 39.0497 87.2769C39.6833 87.341 40.2727 87.6313 40.7097 88.0946C41.1908 88.6803 41.7914 89.1565 42.4714 89.4912C43.1514 89.826 43.8951 90.0115 44.6526 90.0357C46.5768 90.0393 48.4615 89.4902 50.0826 88.4536C52.231 87.171 54.1381 85.5222 55.7177 83.5817C57.422 81.5133 58.835 79.2214 59.9176 76.7697C60.502 75.1527 61.6068 73.7756 63.0586 72.8546L76.3196 65.2007C77.3998 64.5286 78.301 63.6045 78.9457 62.5077C79.6352 61.4084 80.0558 60.162 80.1736 58.8696C80.2456 57.8406 80.2847 56.9166 80.2847 55.9276C80.2847 46.7526 77.2377 39.9407 71.6847 36.7277C69.3607 35.4082 66.7268 34.7326 64.0547 34.7706L64.0466 34.7697ZM22.2906 97.2456C21.8661 97.2496 21.4461 97.1569 21.0626 96.9746C20.5424 96.6846 20.1108 96.2588 19.8138 95.7426C19.5169 95.2263 19.3658 94.6392 19.3766 94.0437C19.2996 93.0647 19.2656 92.1437 19.2656 91.1237C19.2656 81.5957 22.4736 70.8016 28.2906 60.7236C34.1246 50.6476 41.8666 42.4746 50.1226 37.7236C58.4666 32.9066 66.3587 32.1497 72.3357 35.6057C78.3027 39.0567 81.5817 46.2727 81.5817 55.9287C81.5817 56.9517 81.5486 57.9026 81.4706 58.9586C81.3335 60.457 80.851 61.9033 80.0607 63.1837C79.2998 64.4618 78.2435 65.5389 76.9806 66.3247L63.6976 73.9837C62.5 74.762 61.5908 75.9119 61.1096 77.2567C59.9846 79.8359 58.5034 82.2447 56.7096 84.4127C55.0394 86.4728 53.0196 88.2228 50.7426 89.5826C48.8978 90.7409 46.7609 91.3491 44.5826 91.3357C43.646 91.3012 42.7274 91.069 41.8868 90.6543C41.0463 90.2396 40.303 89.6519 39.7056 88.9297C39.1526 88.2617 38.1796 88.7147 37.7976 88.9417C37.7586 88.9577 37.7206 88.9797 37.6866 88.9907L24.5316 96.5776C23.8558 96.9923 23.0832 97.2226 22.2906 97.2456Z" fill="#1B69FF"/>
<path fill-rule="evenodd" clip-rule="evenodd" d="M49.1642 81.5899C48.4637 81.5982 47.7868 81.3372 47.2732 80.8609C46.3392 79.9609 46.0133 78.3829 46.3943 76.5259C47.0353 73.3619 49.4742 70.3708 51.9352 69.7128C52.3996 69.5762 52.892 69.5652 53.3621 69.6808C53.8321 69.7964 54.2631 70.0345 54.6112 70.3709C55.1318 70.9378 55.5023 71.6259 55.6888 72.3726C55.8754 73.1193 55.872 73.9008 55.6792 74.6459C55.0152 77.8089 52.5792 80.8009 50.1212 81.4589C49.8093 81.5442 49.4875 81.5882 49.1642 81.5899Z" fill="#1B69FF"/>
<path fill-rule="evenodd" clip-rule="evenodd" d="M74.1313 60.6623C73.9879 60.662 73.8488 60.6145 73.7351 60.5271C73.6215 60.4398 73.5398 60.3175 73.5027 60.1791C73.4656 60.0407 73.4751 59.8939 73.5298 59.7614C73.5845 59.6289 73.6814 59.5181 73.8053 59.4462L77.3443 57.4052C77.4928 57.3253 77.6667 57.3067 77.8289 57.3532C77.991 57.3997 78.1286 57.5075 78.2123 57.654C78.296 57.8004 78.3192 57.9738 78.277 58.1371C78.2348 58.3004 78.1306 58.4407 77.9864 58.5282L74.4473 60.5743C74.3516 60.6311 74.2425 60.6614 74.1313 60.6623Z" fill="#1B69FF"/>
<path fill-rule="evenodd" clip-rule="evenodd" d="M67.1955 45.3025C67.0808 45.3041 66.9679 45.2737 66.8696 45.2147C66.7948 45.1732 66.729 45.1172 66.6762 45.05C66.6234 44.9828 66.5846 44.9056 66.562 44.8232C66.5393 44.7407 66.5334 44.6546 66.5445 44.5699C66.5556 44.4851 66.5834 44.4035 66.6265 44.3296L69.1425 39.9886C69.1847 39.914 69.2414 39.8485 69.3091 39.796C69.3769 39.7434 69.4544 39.7049 69.5372 39.6826C69.62 39.6602 69.7063 39.6545 69.7913 39.6658C69.8763 39.6772 69.9582 39.7053 70.0322 39.7486C70.1062 39.7919 70.1709 39.8494 70.2225 39.9179C70.2741 39.9864 70.3116 40.0644 70.3327 40.1475C70.3539 40.2306 70.3583 40.3171 70.3458 40.4019C70.3332 40.4867 70.3039 40.5683 70.2596 40.6417L67.7486 44.9776C67.6946 45.0768 67.6144 45.1595 67.517 45.2167C67.4196 45.274 67.3085 45.3036 67.1955 45.3025Z" fill="#1B69FF"/>
<path fill-rule="evenodd" clip-rule="evenodd" d="M50.4301 46.9506C50.3453 46.9513 50.2611 46.935 50.1826 46.9026C50.1041 46.8703 50.033 46.8226 49.9732 46.7623C49.9135 46.702 49.8664 46.6303 49.8348 46.5516C49.8032 46.4728 49.7877 46.3885 49.7892 46.3036V42.2117C49.7889 42.0405 49.8559 41.876 49.9758 41.7538C50.0957 41.6317 50.259 41.5615 50.4301 41.5586C50.5167 41.5576 50.6026 41.5737 50.683 41.606C50.7633 41.6383 50.8363 41.6862 50.898 41.7469C50.9598 41.8076 51.0089 41.8799 51.0426 41.9596C51.0762 42.0394 51.0937 42.1251 51.0941 42.2117V46.3036C51.0936 46.3899 51.076 46.4752 51.0422 46.5546C51.0084 46.634 50.9592 46.7058 50.8974 46.766C50.8357 46.8262 50.7626 46.8736 50.6823 46.9053C50.6021 46.937 50.5164 46.9523 50.4301 46.9506Z" fill="#1B69FF"/>
<path fill-rule="evenodd" clip-rule="evenodd" d="M33.6637 64.644C33.5476 64.6407 33.4339 64.6102 33.3317 64.555L30.8377 63.1059C30.7636 63.0638 30.6985 63.0074 30.6464 62.94C30.5942 62.8726 30.556 62.7955 30.5338 62.7132C30.5117 62.6309 30.5061 62.545 30.5174 62.4605C30.5287 62.376 30.5567 62.2946 30.5997 62.221C30.6409 62.1468 30.6966 62.0814 30.7635 62.0291C30.8304 61.9768 30.9071 61.9386 30.9891 61.9164C31.0711 61.8943 31.1566 61.8889 31.2407 61.9005C31.3249 61.9121 31.4058 61.9405 31.4787 61.984L33.9898 63.432C34.0645 63.4734 34.1302 63.5294 34.183 63.5966C34.2358 63.6638 34.2747 63.7409 34.2974 63.8233C34.32 63.9057 34.3259 63.992 34.3148 64.0767C34.3037 64.1615 34.2758 64.2431 34.2327 64.317C34.1734 64.4152 34.09 64.4968 33.9905 64.554C33.891 64.6112 33.7785 64.6422 33.6637 64.644Z" fill="#1B69FF"/>
<path fill-rule="evenodd" clip-rule="evenodd" d="M23.1697 90.0451C23.0579 90.0463 22.948 90.017 22.8517 89.9604C22.7553 89.9039 22.6762 89.8222 22.6227 89.7241C22.5363 89.5746 22.5127 89.3969 22.5571 89.2301C22.6015 89.0632 22.7104 88.9208 22.8597 88.8341L26.3987 86.7871C26.4724 86.7452 26.5537 86.7184 26.6379 86.708C26.7221 86.6976 26.8075 86.7039 26.8893 86.7265C26.971 86.7492 27.0475 86.7878 27.1143 86.8401C27.1811 86.8923 27.237 86.9572 27.2787 87.0311C27.3225 87.1044 27.3511 87.1858 27.3628 87.2704C27.3746 87.355 27.3692 87.4411 27.347 87.5235C27.3248 87.606 27.2862 87.6832 27.2336 87.7505C27.1809 87.8177 27.1153 87.8737 27.0406 87.9151L23.5016 89.9612C23.3991 90.0149 23.2854 90.0437 23.1697 90.0451Z" fill="#1B69FF"/>
<path fill-rule="evenodd" clip-rule="evenodd" d="M54.489 71.848C54.3431 71.8482 54.2017 71.7977 54.089 71.7051C54.0212 71.6522 53.9646 71.5865 53.9223 71.5117C53.88 71.4369 53.8529 71.3545 53.8426 71.2692C53.8323 71.1838 53.8389 71.0972 53.8621 71.0145C53.8854 70.9318 53.9248 70.8544 53.978 70.787L72.983 47.2631C73.0356 47.1933 73.1017 47.1349 73.1773 47.0912C73.253 47.0475 73.3366 47.0195 73.4233 47.0088C73.51 46.9981 73.5979 47.005 73.6818 47.029C73.7658 47.0531 73.8441 47.0938 73.9121 47.1487C73.98 47.2036 74.0361 47.2716 74.0772 47.3486C74.1183 47.4257 74.1436 47.5103 74.1513 47.5973C74.1591 47.6843 74.1491 47.7719 74.1223 47.855C74.0954 47.9381 74.0521 48.015 73.995 48.081L54.989 71.6051C54.9297 71.6811 54.8538 71.7424 54.7672 71.7845C54.6805 71.8267 54.5853 71.8484 54.489 71.848Z" fill="#1B69FF"/>
</g>
<defs>
<clipPath id="clip0_9_86845">
<rect width="93" height="125" fill="white"/>
</clipPath>
</defs>
</svg>

<svg xmlns="http://www.w3.org/2000/svg" width="93" height="125" fill="none" viewBox="0 0 93 125"><g fill-rule="evenodd" clip-path="url(#a)" clip-rule="evenodd"><path fill="#1b69ff" d="M42.12 26.292C22.859 37.684 7.47 62.573 5.562 85.472c-.277 3.263-.846 10.053 1.83 12.641a65 65 0 0 0 6.293 3.821 10.3 10.3 0 0 1-.846-3.533c-1.56-18.934 9.047-40.605 20.239-53.689 9.467-11.07 24.1-21.638 37.315-19.426l-2.737-1.576c-6.934-3.916-15.538-3.047-25.537 2.582zM16.563 104.96a.7.7 0 0 1-.332-.083c-.327-.193-.863-.5-1.521-.868a78 78 0 0 1-8.217-4.955c-3.141-3.025-2.55-9.959-2.24-13.692 1.963-23.292 17.59-48.608 37.2-60.193v-.01c10.435-5.867 19.482-6.736 26.836-2.577l8.66 5a.633.633 0 0 1 .238.884.65.65 0 0 1-.88.25c-13.962-7.7-31.481 4.262-42.248 16.842-11.027 12.874-21.462 34.174-19.924 52.738.222 2.687 1.068 4.374 2.77 5.463a.652.652 0 0 1-.348 1.2z"/><path fill="#f1f4fb" d="M50.43 30.72c10.237-5.9 19.5-6.452 26.2-2.576 6.714 3.876 10.86 12.182 10.86 24 0 1.156-.054 2.4-.132 3.594a23.1 23.1 0 0 1-3.451 10.109 21.44 21.44 0 0 1-7.26 7.482l-11.613 6.7a45.6 45.6 0 0 1-5.707 8.787 33.8 33.8 0 0 1-8.915 7.775 16.4 16.4 0 0 1-8.913 2.516 9.2 9.2 0 0 1-5.691-2.218l-11.612 6.7c-2.8 1.609-5.358 1.852-7.283.918s-3.191-3.058-3.428-6.15a54 54 0 0 1-.133-3.45c.022-11.817 4.169-24.912 10.882-36.525 6.699-11.63 15.978-21.76 26.197-27.661"/><path fill="#1b69ff" d="M66.96 26.305c-4.95 0-10.457 1.675-16.2 4.982-9.8 5.652-19.023 15.39-25.98 27.417-6.933 12.022-10.765 24.88-10.765 36.2 0 1.078.039 2.251.127 3.4.205 2.753 1.283 4.75 3.047 5.613 1.8.868 4.164.553 6.675-.9l11.613-6.7a.66.66 0 0 1 .758.073c1.48 1.271 3.35 1.999 5.3 2.061a15.95 15.95 0 0 0 8.549-2.433 33.2 33.2 0 0 0 8.754-7.626 45.3 45.3 0 0 0 5.612-8.658.65.65 0 0 1 .255-.278l11.612-6.7a20.95 20.95 0 0 0 7.045-7.255 22.1 22.1 0 0 0 3.34-9.81c.094-1.217.127-2.444.127-3.556 0-11.187-3.721-19.509-10.512-23.44a18.5 18.5 0 0 0-9.357-2.4zm-47.567 79.392a6.2 6.2 0 0 1-2.77-.614c-2.2-1.073-3.54-3.451-3.782-6.686a47 47 0 0 1-.128-3.495c0-11.54 3.893-24.63 10.955-36.85s16.457-22.126 26.455-27.893c10.092-5.828 19.63-6.746 26.836-2.576s11.176 12.9 11.176 24.563c0 1.145-.04 2.4-.133 3.64a23.9 23.9 0 0 1-3.517 10.4 22.3 22.3 0 0 1-7.526 7.708l-11.425 6.6a45.8 45.8 0 0 1-5.707 8.742 34.7 34.7 0 0 1-9.086 7.92 17.4 17.4 0 0 1-9.28 2.6 10 10 0 0 1-5.722-2.085l-11.226 6.475a10.37 10.37 0 0 1-5.121 1.551"/><path fill="#fff" d="M72.009 36.164c-5.524-3.19-13.155-2.737-21.578 2.124s-16.052 13.2-21.571 22.766-8.936 20.34-8.936 30.072c0 1.006.016 1.908.094 2.87a2.72 2.72 0 0 0 1.316 2.394 3.07 3.07 0 0 0 2.865-.376l13.266-7.653v.017c1.062-.613 2.107-.613 2.732.133a6 6 0 0 0 4.423 2.173 10.7 10.7 0 0 0 5.8-1.665 21.9 21.9 0 0 0 5.8-5.02 30 30 0 0 0 4.3-6.969 7.14 7.14 0 0 1 2.859-3.61l13.283-7.654a8.4 8.4 0 0 0 2.842-2.92 8.9 8.9 0 0 0 1.338-3.932c.077-1.045.094-1.98.094-2.986.004-9.733-3.408-16.574-8.927-19.764"/><path fill="#1b69ff" d="M64.047 34.77c-4.054 0-8.588 1.37-13.283 4.08-8.051 4.646-15.633 12.648-21.334 22.53s-8.865 20.443-8.865 29.745c0 .99.039 1.875.094 2.82a2.1 2.1 0 0 0 .973 1.858 2.44 2.44 0 0 0 2.234-.354l13.266-7.653q.062-.03.128-.05a2.65 2.65 0 0 1 3.45.349 5.32 5.32 0 0 0 3.943 1.94 10.04 10.04 0 0 0 5.43-1.581 21.4 21.4 0 0 0 5.635-4.872 29.4 29.4 0 0 0 4.2-6.812 7.76 7.76 0 0 1 3.14-3.915L76.32 65.2a7.9 7.9 0 0 0 2.626-2.693 8.26 8.26 0 0 0 1.228-3.638c.072-1.03.11-1.953.11-2.942 0-9.175-3.046-15.987-8.6-19.2a15 15 0 0 0-7.63-1.957zM22.29 97.246a2.8 2.8 0 0 1-1.228-.271 3.29 3.29 0 0 1-1.686-2.931c-.077-.98-.111-1.9-.111-2.92 0-9.528 3.208-20.322 9.025-30.4 5.834-10.076 13.576-18.25 21.832-23 8.344-4.817 16.236-5.574 22.213-2.118 5.967 3.45 9.246 10.667 9.246 20.323 0 1.023-.033 1.974-.111 3.03a9.7 9.7 0 0 1-1.41 4.225 9.3 9.3 0 0 1-3.08 3.14l-13.283 7.66a6.53 6.53 0 0 0-2.588 3.273 30.1 30.1 0 0 1-4.4 7.156 22.6 22.6 0 0 1-5.967 5.17 11.45 11.45 0 0 1-6.16 1.753 6.65 6.65 0 0 1-4.877-2.406c-.553-.668-1.526-.215-1.908.012-.04.016-.077.038-.111.049l-13.155 7.587a4.54 4.54 0 0 1-2.241.668"/><path fill="#1b69ff" d="M49.164 81.59a2.73 2.73 0 0 1-1.89-.73c-.935-.9-1.26-2.477-.88-4.334.641-3.164 3.08-6.155 5.541-6.813a2.74 2.74 0 0 1 2.676.658 4.61 4.61 0 0 1 1.068 4.275c-.664 3.163-3.1 6.155-5.558 6.813-.312.085-.634.13-.957.13M74.131 60.662a.652.652 0 0 1-.326-1.216l3.54-2.04a.647.647 0 0 1 .641 1.122l-3.539 2.046a.63.63 0 0 1-.316.088M67.196 45.303a.6.6 0 0 1-.326-.088.64.64 0 0 1-.244-.885l2.516-4.341a.647.647 0 1 1 1.118.653l-2.511 4.336a.62.62 0 0 1-.553.325M50.43 46.95a.635.635 0 0 1-.64-.646v-4.092a.652.652 0 1 1 1.304 0v4.092a.65.65 0 0 1-.664.647M33.664 64.644a.74.74 0 0 1-.332-.089l-2.494-1.45a.644.644 0 0 1-.238-.884.635.635 0 0 1 .879-.237l2.51 1.448a.64.64 0 0 1 .002 1.122.7.7 0 0 1-.327.09M23.17 90.045a.61.61 0 0 1-.547-.32.65.65 0 0 1 .237-.89l3.539-2.048a.643.643 0 0 1 .88.244.637.637 0 0 1-.238.884l-3.54 2.046a.73.73 0 0 1-.331.084"/><path fill="#1b69ff" d="M54.489 71.848a.63.63 0 0 1-.4-.143.653.653 0 0 1-.111-.918l19.005-23.524a.651.651 0 1 1 1.012.818L54.989 71.605a.63.63 0 0 1-.5.243"/></g><defs><clipPath id="a"><path fill="#fff" d="M0 0h93v125H0z"/></clipPath></defs></svg>
